resources/images/file_type_cpp.svg

<svg xmlns="http://www.w3.org/2000/svg" viewBox="0 0 32 32"><title>file_type_cpp2</title><path d="M26.914 13.8v1.54h-1.542v1.543h1.542v1.543h1.543v-1.543H30V15.34h-1.543V13.8Zm-3.5 0H21.87v1.54h-1.543v1.543h1.543v1.543h1.543v-1.543h1.543V15.34h-1.543Zm-3.654 5.226a6.167 6.167 0 1 1-.04-6.118l5.39-3.1a12.384 12.384 0 1 0 .032 12.34Z" style="fill:#005f91"/></svg>

<svg xmlns="http://www.w3.org/2000/svg" viewBox="0 0 32 32"><title>file_type_cpp2</title><path d="M26.914,13.8V15.34H25.372v1.543h1.542v1.543h1.543V16.883H30V15.34H28.457V13.8Zm-3.5,0H21.87V15.34H20.327v1.543H21.87v1.543h1.543V16.883h1.543V15.34H23.413Zm-3.654,5.226a6.167,6.167,0,1,1-.04-6.118l5.39-3.1a12.384,12.384,0,1,0,.032,12.34Z" style="fill:#005f91"/></svg>
